fba/logo.svg

<?xml version="1.0" encoding="UTF-8" standalone="no"?>
<svg
   xmlns:dc="http://purl.org/dc/elements/1.1/"
   xmlns:cc="http://creativecommons.org/ns#"
   xmlns:rdf="http://www.w3.org/1999/02/22-rdf-syntax-ns#"
   xmlns:svg="http://www.w3.org/2000/svg"
   xmlns="http://www.w3.org/2000/svg"
   xmlns:sodipodi="http://sodipodi.sourceforge.net/DTD/sodipodi-0.dtd"
   xmlns:inkscape="http://www.inkscape.org/namespaces/inkscape"
   width="450.27155pt"
   height="102.80173pt"
   viewBox="0 0 450.27155 102.80173"
   version="1.1"
   id="svg24"
   sodipodi:docname="logo.svg"
   inkscape:version="0.92.4 (5da689c313, 2019-01-14)">
  <metadata
     id="metadata30">
    <rdf:RDF>
      <cc:Work
         rdf:about="">
        <dc:format>image/svg+xml</dc:format>
        <dc:type
           rdf:resource="http://purl.org/dc/dcmitype/StillImage" />
      </cc:Work>
    </rdf:RDF>
  </metadata>
  <defs
     id="defs28" />
  <sodipodi:namedview
     pagecolor="#ffffff"
     bordercolor="#666666"
     borderopacity="1"
     objecttolerance="10"
     gridtolerance="10"
     guidetolerance="10"
     inkscape:pageopacity="0"
     inkscape:pageshadow="2"
     inkscape:window-width="1366"
     inkscape:window-height="704"
     id="namedview26"
     showgrid="false"
     inkscape:zoom="0.39726027"
     inkscape:cx="438"
     inkscape:cy="37.068966"
     inkscape:window-x="0"
     inkscape:window-y="27"
     inkscape:window-maximized="1"
     inkscape:current-layer="svg24" />
  <g
     id="g44"
     transform="scale(0.68534483)">
    <g
       id="#fe8234ff">
      <path
         id="path2"
         d="m 0,0 h 144.35 c 8.18,1.43 16.49,4.22 22.7,9.95 6.95,6.21 13.02,14.46 13.43,24.1 0.23,8.5 -0.05,17.01 0.08,25.51 -14.86,0 -29.71,-0.05 -44.56,0.01 -5.69,-0.02 -11.58,0.52 -17.05,-1.45 C 79.39,45.03 39.58,32.68 0,19.64 Z"
         inkscape:connector-curvature="0"
         style="opacity:1;fill:#fe8234" />
      <path
         id="path4"
         d="m 59.92,42.93 c 11.86,3.12 23.26,7.7 34.97,11.32 4.82,1.48 9.58,3.14 14.31,4.89 0.39,15.98 0.04,31.98 0.16,47.96 5.27,0.18 10.54,0.24 15.82,0.2 0.38,14.23 0.1,28.47 0.14,42.7 H 37.64 c -0.09,-7.29 -0.15,-14.58 0.12,-21.86 7.22,-3.74 14.48,-7.41 21.89,-10.74 0.41,-24.82 -0.14,-49.65 0.27,-74.47 z"
         inkscape:connector-curvature="0"
         style="opacity:1;fill:#fe8234" />
      <path
         id="path6"
         d="m 114.94,64.34 c 21.88,0.06 43.76,0.01 65.63,0.03 -0.06,12.59 -0.09,25.18 0.02,37.77 -3.86,0.24 -7.73,0.32 -11.59,0.28 -18.06,-0.13 -36.12,0.14 -54.18,-0.13 -0.07,-12.65 -0.28,-25.31 0.12,-37.95 z"
         inkscape:connector-curvature="0"
         style="opacity:1;fill:#fe8234" />
    </g>
    <g
       id="#000000ff">
      <path
         id="path9"
         d="m 219.11,42.28 c 16.51,0.08 33.02,0 49.53,0.05 -0.01,4.11 0,8.21 -0.01,12.32 -11.76,0.18 -23.54,-0.4 -35.3,0.28 -0.02,5.69 -0.02,11.39 0.01,17.08 10.24,0.65 20.5,0.13 30.75,0.26 0.3,4.14 0.29,8.3 -0.03,12.44 -10.24,0.12 -20.5,-0.4 -30.73,0.25 -0.12,10.27 0.33,20.55 -0.2,30.82 -4.68,0.08 -9.35,0.08 -14.03,0.01 -0.26,-24.5 -0.28,-49.01 0.01,-73.51 z"
         inkscape:connector-curvature="0"
         style="opacity:1;fill:#000000" />
      <path
         id="path11"
         d="m 280.89,42.29 c 11.72,0.01 23.43,0.05 35.15,-0.01 6.05,0.04 12.71,1.05 17.26,5.41 4.49,4.82 7.32,12.04 4.74,18.47 -1.36,4.98 -5.4,8.41 -9.05,11.76 3.64,1.38 7.53,2.92 9.83,6.27 5.75,7.51 4.03,18.74 -2.27,25.38 -4.69,4.98 -11.98,6.16 -18.51,6.28 -12.4,-0.09 -24.79,0.02 -37.18,-0.06 -0.53,-14.59 -0.07,-29.19 -0.22,-43.79 0.14,-9.9 -0.32,-19.81 0.25,-29.71 m 14.47,12.11 c -0.09,5.87 -0.07,11.75 -0.05,17.63 6.56,0.33 13.15,0.53 19.71,0.18 4.13,-0.24 8.93,-2.7 9.37,-7.26 0.97,-5.02 -3.13,-10.61 -8.4,-10.46 -6.88,-0.17 -13.76,0.11 -20.63,-0.09 m -0.04,30.55 c -0.04,6.05 -0.03,12.11 -0.01,18.17 6.9,0.42 13.82,0.38 20.73,0.25 4.12,-0.04 8.79,-1.64 10.61,-5.66 1.86,-3.56 0.54,-8.42 -2.88,-10.52 -2.89,-1.83 -6.36,-2.48 -9.73,-2.53 -6.24,-0.12 -12.49,-0.09 -18.72,0.29 z"
         inkscape:connector-curvature="0"
         style="opacity:1;fill:#000000" />
      <path
         id="path13"
         d="m 404.65,42.44 c 5.03,-0.22 10.07,-0.21 15.11,-0.08 6.62,15.56 12.81,31.3 18.98,47.04 3.4,8.78 7.63,17.24 10.37,26.27 -5.22,0.26 -10.45,0.22 -15.68,0.01 -2.05,-5.65 -4.17,-11.28 -6.59,-16.79 -9.56,-0.37 -19.15,-0.37 -28.71,0 -2.23,5.56 -4.18,11.22 -6.51,16.74 -4.97,0.26 -9.95,0.32 -14.91,0.07 1.95,-7.33 5.51,-14.08 7.87,-21.27 6.65,-17.35 13.99,-34.43 20.07,-51.99 m 7.66,18.47 c -3.55,8.19 -6.85,16.52 -9.27,25.12 6.27,0.43 12.57,0.47 18.84,-0.07 -3.04,-8.4 -5.92,-16.89 -9.57,-25.05 z"
         inkscape:connector-curvature="0"
         style="opacity:1;fill:#000000" />
      <path
         id="path15"
         d="m 458.05,42.31 c 4.35,-0.05 8.71,-0.05 13.07,-0.01 0.58,14.22 0.08,28.46 0.24,42.7 -0.13,10.27 0.29,20.54 -0.22,30.8 -4.37,0.06 -8.73,0.06 -13.1,-0.02 -0.58,-13.92 -0.1,-27.86 -0.25,-41.78 0.14,-10.56 -0.32,-21.14 0.26,-31.69 z"
         inkscape:connector-curvature="0"
         style="opacity:1;fill:#000000" />
      <path
         id="path17"
         d="m 548.91,42.3 c 4.72,-0.04 9.43,-0.04 14.15,0.01 0.56,8.52 0.11,17.06 0.26,25.59 4.25,-3.28 9.13,-6.24 14.67,-6.38 4.96,-0.19 10.01,1.5 13.93,4.54 4.15,3.7 4.57,9.74 4.5,14.94 -0.27,11.6 0.26,23.2 -0.29,34.79 -4.4,0.07 -8.79,0.07 -13.19,0 -0.57,-11.27 -0.06,-22.56 -0.21,-33.84 -0.09,-3.03 -0.53,-6.6 -3.3,-8.41 -5.9,-4.64 -15.52,0.38 -15.96,7.64 -0.58,11.52 0.3,23.08 -0.38,34.6 -4.74,0.09 -9.47,0.09 -14.21,0.02 -0.5,-13.93 -0.07,-27.87 -0.21,-41.8 0.14,-10.57 -0.32,-21.14 0.24,-31.7 z"
         inkscape:connector-curvature="0"
         style="opacity:1;fill:#000000" />
      <path
         id="path19"
         d="m 510.29,62.03 c 9.21,-2.27 19.28,2.9 23.57,11.2 4.18,8.14 4.56,17.8 1.99,26.49 -2.02,9.86 -11.65,17.89 -21.82,17.24 -5.63,-0.33 -10.3,-3.82 -14.5,-7.24 -0.71,8.76 0.07,17.54 -0.47,26.3 -4.4,0.28 -8.82,0.3 -13.23,0.1 -0.32,-24.45 -0.24,-48.91 -0.04,-73.36 4.02,-0.2 8.04,-0.2 12.06,-0.01 0.2,2.15 0.4,4.29 0.62,6.44 3.57,-2.91 7.21,-6.11 11.82,-7.16 m -1.97,10.12 c -5.29,2.11 -8.54,7.55 -8.93,13.09 -0.65,6.6 0.41,14.18 5.47,18.93 3.52,3.48 9.78,3.5 13.39,0.13 3.87,-3.2 4.83,-8.51 4.99,-13.27 0.13,-5.55 -0.75,-11.54 -4.29,-16 -2.76,-2.54 -6.95,-4.12 -10.63,-2.88 z"
         inkscape:connector-curvature="0"
         style="opacity:1;fill:#000000" />
      <path
         id="path21"
         d="m 616.2,65.19 c 4.43,-2.64 9.67,-3.59 14.77,-3.74 6.69,-0.12 14.14,0.55 19.36,5.21 4.31,3.83 3.67,10.13 3.78,15.35 0.21,11.15 -1.77,22.82 2.89,33.38 v 0.8 c -4.21,-0.24 -8.42,-0.41 -12.63,-0.53 -1.13,-1.54 -2.24,-3.09 -3.36,-4.62 -4.91,2.89 -10.11,6.03 -16.01,5.99 -5.88,0 -12.3,-2.36 -15.42,-7.62 -3.56,-5.55 -2.83,-13.37 1.62,-18.21 3.67,-3.98 9.12,-5.51 14.24,-6.59 5.12,-0.97 10.21,-2.09 15.18,-3.65 -0.48,-2.48 0.11,-5.69 -2.21,-7.37 -2.66,-1.99 -6.22,-2.25 -9.4,-1.84 -4.42,0.73 -6.43,6.93 -11.31,5.98 -3.07,-0.35 -5.97,-1.46 -8.85,-2.49 1.92,-3.66 3.64,-7.82 7.35,-10.05 m 7.55,30.51 c -3.76,2.52 -1.92,8.95 2.1,10.36 4.39,1.82 9.54,-0.22 12.66,-3.52 2.64,-3.01 1.78,-7.29 1.82,-10.95 -5.57,1.06 -11.48,1.4 -16.58,4.11 z"
         inkscape:connector-curvature="0"
         style="opacity:1;fill:#000000" />
    </g>
  </g>
</svg>

<?xml version="1.0" encoding="UTF-8" ?>
<!DOCTYPE svg PUBLIC "-//W3C//DTD SVG 1.1//EN" "http://www.w3.org/Graphics/SVG/1.1/DTD/svg11.dtd">
<svg width="657pt" height="150pt" viewBox="0 0 657 150" version="1.1" xmlns="http://www.w3.org/2000/svg">
<g id="#fe8234ff">
<path fill="#fe8234" opacity="1.00" d=" M 0.00 0.00 L 144.35 0.00 C 152.53 1.43 160.84 4.22 167.05 9.95 C 174.00 16.16 180.07 24.41 180.48 34.05 C 180.71 42.55 180.43 51.06 180.56 59.56 C 165.70 59.56 150.85 59.51 136.00 59.57 C 130.31 59.55 124.42 60.09 118.95 58.12 C 79.39 45.03 39.58 32.68 0.00 19.64 L 0.00 0.00 Z" />
<path fill="#fe8234" opacity="1.00" d=" M 59.92 42.93 C 71.78 46.05 83.18 50.63 94.89 54.25 C 99.71 55.73 104.47 57.39 109.20 59.14 C 109.59 75.12 109.24 91.12 109.36 107.10 C 114.63 107.28 119.90 107.34 125.18 107.30 C 125.56 121.53 125.28 135.77 125.32 150.00 L 37.64 150.00 C 37.55 142.71 37.49 135.42 37.76 128.14 C 44.98 124.40 52.24 120.73 59.65 117.40 C 60.06 92.58 59.51 67.75 59.92 42.93 Z" />
<path fill="#fe8234" opacity="1.00" d=" M 114.94 64.34 C 136.82 64.40 158.70 64.35 180.57 64.37 C 180.51 76.96 180.48 89.55 180.59 102.14 C 176.73 102.38 172.86 102.46 169.00 102.42 C 150.94 102.29 132.88 102.56 114.82 102.29 C 114.75 89.64 114.54 76.98 114.94 64.34 Z" />
</g>
<g id="#000000ff">
<path fill="#000000" opacity="1.00" d=" M 219.11 42.28 C 235.62 42.36 252.13 42.28 268.64 42.33 C 268.63 46.44 268.64 50.54 268.63 54.65 C 256.87 54.83 245.09 54.25 233.33 54.93 C 233.31 60.62 233.31 66.32 233.34 72.01 C 243.58 72.66 253.84 72.14 264.09 72.27 C 264.39 76.41 264.38 80.57 264.06 84.71 C 253.82 84.83 243.56 84.31 233.33 84.96 C 233.21 95.23 233.66 105.51 233.13 115.78 C 228.45 115.86 223.78 115.86 219.10 115.79 C 218.84 91.29 218.82 66.78 219.11 42.28 Z" />
<path fill="#000000" opacity="1.00" d=" M 280.89 42.29 C 292.61 42.30 304.32 42.34 316.04 42.28 C 322.09 42.32 328.75 43.33 333.30 47.69 C 337.79 52.51 340.62 59.73 338.04 66.16 C 336.68 71.14 332.64 74.57 328.99 77.92 C 332.63 79.30 336.52 80.84 338.82 84.19 C 344.57 91.70 342.85 102.93 336.55 109.57 C 331.86 114.55 324.57 115.73 318.04 115.85 C 305.64 115.76 293.25 115.87 280.86 115.79 C 280.33 101.20 280.79 86.60 280.64 72.00 C 280.78 62.10 280.32 52.19 280.89 42.29 M 295.36 54.40 C 295.27 60.27 295.29 66.15 295.31 72.03 C 301.87 72.36 308.46 72.56 315.02 72.21 C 319.15 71.97 323.95 69.51 324.39 64.95 C 325.36 59.93 321.26 54.34 315.99 54.49 C 309.11 54.32 302.23 54.60 295.36 54.40 M 295.32 84.95 C 295.28 91.00 295.29 97.06 295.31 103.12 C 302.21 103.54 309.13 103.50 316.04 103.37 C 320.16 103.33 324.83 101.73 326.65 97.71 C 328.51 94.15 327.19 89.29 323.77 87.19 C 320.88 85.36 317.41 84.71 314.04 84.66 C 307.80 84.54 301.55 84.57 295.32 84.95 Z" />
<path fill="#000000" opacity="1.00" d=" M 404.65 42.44 C 409.68 42.22 414.72 42.23 419.76 42.36 C 426.38 57.92 432.57 73.66 438.74 89.40 C 442.14 98.18 446.37 106.64 449.11 115.67 C 443.89 115.93 438.66 115.89 433.43 115.68 C 431.38 110.03 429.26 104.40 426.84 98.89 C 417.28 98.52 407.69 98.52 398.13 98.89 C 395.90 104.45 393.95 110.11 391.62 115.63 C 386.65 115.89 381.67 115.95 376.71 115.70 C 378.66 108.37 382.22 101.62 384.58 94.43 C 391.23 77.08 398.57 60.00 404.65 42.44 M 412.31 60.91 C 408.76 69.10 405.46 77.43 403.04 86.03 C 409.31 86.46 415.61 86.50 421.88 85.96 C 418.84 77.56 415.96 69.07 412.31 60.91 Z" />
<path fill="#000000" opacity="1.00" d=" M 458.05 42.31 C 462.40 42.26 466.76 42.26 471.12 42.30 C 471.70 56.52 471.20 70.76 471.36 85.00 C 471.23 95.27 471.65 105.54 471.14 115.80 C 466.77 115.86 462.41 115.86 458.04 115.78 C 457.46 101.86 457.94 87.92 457.79 74.00 C 457.93 63.44 457.47 52.86 458.05 42.31 Z" />
<path fill="#000000" opacity="1.00" d=" M 548.91 42.30 C 553.63 42.26 558.34 42.26 563.06 42.31 C 563.62 50.83 563.17 59.37 563.32 67.90 C 567.57 64.62 572.45 61.66 577.99 61.52 C 582.95 61.33 588.00 63.02 591.92 66.06 C 596.07 69.76 596.49 75.80 596.42 81.00 C 596.15 92.60 596.68 104.20 596.13 115.79 C 591.73 115.86 587.34 115.86 582.94 115.79 C 582.37 104.52 582.88 93.23 582.73 81.95 C 582.64 78.92 582.20 75.35 579.43 73.54 C 573.53 68.90 563.91 73.92 563.47 81.18 C 562.89 92.70 563.77 104.26 563.09 115.78 C 558.35 115.87 553.62 115.87 548.88 115.80 C 548.38 101.87 548.81 87.93 548.67 74.00 C 548.81 63.43 548.35 52.86 548.91 42.30 Z" />
<path fill="#000000" opacity="1.00" d=" M 510.29 62.03 C 519.50 59.76 529.57 64.93 533.86 73.23 C 538.04 81.37 538.42 91.03 535.85 99.72 C 533.83 109.58 524.20 117.61 514.03 116.96 C 508.40 116.63 503.73 113.14 499.53 109.72 C 498.82 118.48 499.60 127.26 499.06 136.02 C 494.66 136.30 490.24 136.32 485.83 136.12 C 485.51 111.67 485.59 87.21 485.79 62.76 C 489.81 62.56 493.83 62.56 497.85 62.75 C 498.05 64.90 498.25 67.04 498.47 69.19 C 502.04 66.28 505.68 63.08 510.29 62.03 M 508.32 72.15 C 503.03 74.26 499.78 79.70 499.39 85.24 C 498.74 91.84 499.80 99.42 504.86 104.17 C 508.38 107.65 514.64 107.67 518.25 104.30 C 522.12 101.10 523.08 95.79 523.24 91.03 C 523.37 85.48 522.49 79.49 518.95 75.03 C 516.19 72.49 512.00 70.91 508.32 72.15 Z" />
<path fill="#000000" opacity="1.00" d=" M 616.20 65.19 C 620.63 62.55 625.87 61.60 630.97 61.45 C 637.66 61.33 645.11 62.00 650.33 66.66 C 654.64 70.49 654.00 76.79 654.11 82.01 C 654.32 93.16 652.34 104.83 657.00 115.39 L 657.00 116.19 C 652.79 115.95 648.58 115.78 644.37 115.66 C 643.24 114.12 642.13 112.57 641.01 111.04 C 636.10 113.93 630.90 117.07 625.00 117.03 C 619.12 117.03 612.70 114.67 609.58 109.41 C 606.02 103.86 606.75 96.04 611.20 91.20 C 614.87 87.22 620.32 85.69 625.44 84.61 C 630.56 83.64 635.65 82.52 640.62 80.96 C 640.14 78.48 640.73 75.27 638.41 73.59 C 635.75 71.60 632.19 71.34 629.01 71.75 C 624.59 72.48 622.58 78.68 617.70 77.73 C 614.63 77.38 611.73 76.27 608.85 75.24 C 610.77 71.58 612.49 67.42 616.20 65.19 M 623.75 95.70 C 619.99 98.22 621.83 104.65 625.85 106.06 C 630.24 107.88 635.39 105.84 638.51 102.54 C 641.15 99.53 640.29 95.25 640.33 91.59 C 634.76 92.65 628.85 92.99 623.75 95.70 Z" />
</g>
</svg>
